!!!OTL: Die Koenigskinder:
!!!OTL-incipit: Ach Mutter, liebe Mutter,
!!!ODT: 1853
!!!ARE: Europa, Mitteleuropa, Deutschland (BRD), Schleswig Holstein,
!!    deutsch - daenisches Grenzgebiet
!!!YOR: 1, S. 217
!!    1853 gedruckt
!!!SCT: Q0020J
!!!TXL: @@DE
!!!YEM: Copyright 1995, estate of Helmut Schaffrath.
**kern	**text
*ICvox	*
*M6/8	*
*k[b-e-]	*
*g:	*
!LO:TX:a:t=Berggreen Tydke. F. S. (1853)	!
{8b-	Ach
=1	=1
8.aL	Mut-
16gJ	.
8g	-ter,
8gL	lie-
8aJ	.
8b-	-be
=2	=2
4.a	Mut-
4g}	-ter,
{8g	mein
=3	=3
8.aL	Kopf
16b-J	.
8cc	thut
8.ddL	mir
16ccJ	.
8b-	ſo
=4	=4
4.a	weh;
4r}	.
{8g	ich
=5	=5
4a	woll-
8g	-te
8aL	gern
8b-J	.
8cc	ſpa-
=6	=6
4dd	-ʒie-
8ee-	.
4dd}	-ren
{8cc	wohl
=7	=7
8b-L	an
8aJ	.
8g	die
8.aL	grü-
16b-J	.
8a	-ne
=8	=8
4.g	See.
4r}	.
==	==
!!!AGN: Ballade, Liebe, Trennung, Tod
!!!ONB: ESAC (Essen Associative Code) Database: BALLADE
!!!AMT: compound duple
!!!AIN: vox
!!!EED: Helmut Schaffrath
!!!EEV: 1.0
!!!source: Deutsche Volkslieder mit ihren Melodien. Balladen. Herausgegeben vom Deutschen Volksliedarchiv. Erster Band Balladen. Berlin und Leipzig 1935.
!!!page: 217
!!!ENC: Anna Maria Matuszewska
!!!EEV: 2025/02/14
*-	*-
